X:325
T: Ceol an Mala
S: "Collection of the Dance Music of Ireland" (P. McNulty)
Z: B.Black
L: 1/8
M: 6/8
R: jig
K: G
A | BAB G2 D | GAG GFG | BAB GFG | A2 B c2 A |
BAB G2 D | GAG GBc | ded dcB | A2 B c2 A :|
B2 d ded | ded ded | B2 d ded | e2 f g2 d |
B2 d ded | ded def | gfe dcB | A2 B c2 A :|
